lib/flags/l/CCK.svg

<svg xmlns="http://www.w3.org/2000/svg" fill="none" viewBox="0 0 32 24"><mask id="CCK_svg__a" width="32" height="24" x="0" y="0" mask-type="alpha" maskUnits="userSpaceOnUse"><path fill="#fff" d="M0 0H32V24H0z"/></mask><g mask="url(#CCK_svg__a)"><path fill="#5EAA22" fill-rule="evenodd" d="M0 0H32V24H0V0Z" clip-rule="evenodd"/><path fill="#FECA00" fill-rule="evenodd" d="M24 7 23 7.73205 23.134 6.5 22 6 23.134 5.5 23 4.26795 24 5 25 4.26795 24.866 5.5 26 6 24.866 6.5 25 7.73205 24 7zM22.9628 13.6787 21.9628 14.4108 22.0967 13.1787 20.9628 12.6787 22.0967 12.1787 21.9628 10.9467 22.9628 11.6787 23.9628 10.9467 23.8288 12.1787 24.9628 12.6787 23.8288 13.1787 23.9628 14.4108 22.9628 13.6787zM26 19 25 19.7321 25.134 18.5 24 18 25.134 17.5 25 16.2679 26 17 27 16.2679 26.866 17.5 28 18 26.866 18.5 27 19.7321 26 19zM27 9.5 26.5 9.86603 26.567 9.25 26 9 26.567 8.75 26.5 8.13397 27 8.5 27.5 8.13397 27.433 8.75 28 9 27.433 9.25 27.5 9.86603 27 9.5zM7 14C9.76142 14 12 11.7614 12 9 12 6.23858 9.76142 4 7 4 4.23858 4 2 6.23858 2 9 2 11.7614 4.23858 14 7 14zM19.8977 14.945C19.2396 16.0745 18.1936 16.5872 16.7936 16.5872 14.6984 16.5872 13 14.8887 13 12.7936 13 10.6984 14.6984 9 16.7936 9 18.3921 9 19.6676 9.55928 20.2527 11.0826 19.7895 10.6232 19.0725 10.3081 18 10.3481 16.3431 10.3481 15.2653 11.6389 15.2653 12.7434 15.2653 13.848 16.3431 15.3495 18 15.3495 18.8333 15.337 19.4489 15.1846 19.8977 14.945z" clip-rule="evenodd"/><path fill="#915E2B" d="M7.58254 8.69364C7.58254 8.69364 6.60489 12.2746 6.20122 12.6134C6.02253 12.6922 7.81987 12.6134 7.81987 12.6134C7.81987 12.6134 7.1461 12.3186 7.38344 11.9263C7.62078 11.5339 7.93082 9.00948 7.81987 8.14961C7.70892 7.28974 7.58254 8.69364 7.58254 8.69364Z"/><path fill="#5EAA22" fill-rule="evenodd" d="M7.79053 8.82665C7.79053 8.82665 8.83886 9.14147 8.83886 9.67717C8.83886 10.2129 9.71097 10.9658 9.71097 10.2528C9.71097 9.53971 9.54782 8.82665 9.19334 8.82665C8.83886 8.82665 9.36672 8.34726 9.66987 8.74537C9.97301 9.14348 11.036 8.70793 10.8201 8.42854C10.6042 8.14915 9.83779 7.80099 9.71097 7.80099C9.58415 7.80099 10.5831 7.12043 9.71097 7.12043C8.83886 7.12043 9.33901 7.70175 8.74799 7.08458C8.15698 6.46741 8.99961 7.38584 8.99961 6.34943C8.99961 5.31301 8.76052 4.88954 7.97109 5.4713C7.18165 6.05306 7.33301 5.68408 7.05204 5.46473C6.77106 5.24538 6.52449 6.26781 6.83369 6.47653C7.1429 6.68524 7.48568 7.20253 7.17647 7.20253C6.86726 7.20253 6.64895 6.90402 6.64895 6.69028C6.64895 6.47653 5.80757 6.099 5.009 6.099C4.21043 6.099 4.72712 6.69028 5.009 6.69028C5.29089 6.69028 6.55323 7.12043 5.92206 7.12043C5.29089 7.12043 5.97081 6.80217 5.17523 6.80217C4.37966 6.80217 3.45485 6.43988 3.45485 7.12043C3.45485 7.80099 4.2498 8.10248 4.49814 7.80099C4.74649 7.4995 5.03359 6.99124 5.03359 7.49867C5.03359 8.0061 4.40082 7.79893 3.45485 8.11373C2.50889 8.42854 2.78034 9.25849 3.90882 9.0558C5.03731 8.85311 4.91521 8.86415 5.36827 8.54934C5.82133 8.23454 6.38205 8.3223 5.92206 8.82665C5.46206 9.331 5.00207 10.2528 5.46206 10.2528C5.92206 10.2528 6.21859 10.3782 6.21859 9.89092C6.21859 9.40365 6.48562 8.45499 6.48562 9.0558C6.48562 9.6566 6.8337 10.1095 7.1429 9.89092C7.45211 9.67238 7.0709 8.98857 7.42388 8.98857C7.77686 8.98857 7.79053 8.82665 7.79053 8.82665Z" clip-rule="evenodd"/></g></svg>

<svg xmlns="http://www.w3.org/2000/svg" fill="none" viewBox="0 0 32 24"><g mask="url(#CCK_svg__CC_-_Cocos_(Keeling)"><path fill="#5EAA22" fill-rule="evenodd" d="M0 0h32v24H0V0z" clip-rule="evenodd"/><path fill="#FECA00" fill-rule="evenodd" d="M24 7l-1 .732.134-1.232L22 6l1.134-.5L23 4.268 24 5l1-.732-.134 1.232L26 6l-1.134.5L25 7.732 24 7zm-1.037 6.679l-1 .732.134-1.232-1.134-.5 1.134-.5-.134-1.232 1 .732 1-.732-.134 1.232 1.134.5-1.134.5.134 1.232-1-.732zM26 19l-1 .732.134-1.232L24 18l1.134-.5L25 16.268 26 17l1-.732-.134 1.232L28 18l-1.134.5.134 1.232L26 19zm1-9.5l-.5.366.067-.616L26 9l.567-.25-.067-.616.5.366.5-.366-.067.616L28 9l-.567.25.067.616L27 9.5zM7 14A5 5 0 107 4a5 5 0 000 10zm12.898.945c-.658 1.13-1.704 1.642-3.104 1.642a3.794 3.794 0 110-7.587c1.598 0 2.874.56 3.459 2.083-.463-.46-1.18-.775-2.253-.735-1.657 0-2.735 1.29-2.735 2.395S16.343 15.35 18 15.35c.833-.013 1.449-.165 1.898-.405z" clip-rule="evenodd"/><path fill="#915E2B" d="M7.582 8.694s-.977 3.58-1.38 3.92c-.18.078 1.618 0 1.618 0s-.674-.295-.437-.688c.238-.392.548-2.916.437-3.776-.111-.86-.238.544-.238.544z"/><path fill="#5EAA22" fill-rule="evenodd" d="M7.79 8.827s1.049.314 1.049.85.872 1.289.872.576-.163-1.426-.518-1.426c-.354 0 .174-.48.477-.082.303.398 1.366-.037 1.15-.316-.216-.28-.982-.628-1.11-.628-.126 0 .873-.68 0-.68-.871 0-.371.58-.962-.036-.591-.618.252.3.252-.736s-.24-1.46-1.029-.878c-.79.582-.638.213-.919-.006-.281-.22-.528.803-.218 1.012.309.208.652.726.342.726-.309 0-.527-.299-.527-.513 0-.213-.841-.591-1.64-.591-.799 0-.282.591 0 .591s1.544.43.913.43.049-.318-.747-.318c-.795 0-1.72-.362-1.72.318 0 .681.795.982 1.043.681.248-.301.536-.81.536-.302 0 .507-.633.3-1.58.615-.945.315-.674 1.144.455.942 1.128-.203 1.006-.192 1.46-.507.452-.314 1.013-.227.553.278-.46.504-.92 1.426-.46 1.426s.757.125.757-.362.267-1.436.267-.835c0 .6.348 1.054.657.835.31-.219-.072-.902.28-.902.354 0 .367-.162.367-.162z" clip-rule="evenodd"/></g></svg>
